X: 26475
T: Michael Black's
R: hornpipe
M: 4/4
K: Dmajor
|:dB|AFEF DB,A,B,|D2DD DEFD|(3EEE EF EDB,A,|(3B,CD EF G2 dB|
AFEF DB,A,B,|D2DD DEFD|(3EEE EF EDB,A,|B,DDE D2:|
|:AG|(3FED AD BDAD|(3FED AD BDAF|G2BG dGBG|GABc dBAG|
(3FED AD BDAD|(3FED AD BDAF|GFEF GABc|dBAF E2:|

